X:415
T: ACH PREUSSE WAS HAST DU GEFANGEN AN
N: E0344
O: Europa, Mitteleuropa, Deutschland, Bayern
R: historisches Lied, Krieg v. Franzosen und Bayern gegen Preussen 1806
M: 6/8
L: 1/16
K: G
D2 | D3GG2G2F2E2 | E2D2D2D4
c2 | B4B2A2G2A2 | G6z4
D2 | D3GG2G2F2E2 | E2D2D2D4
c2 | B4B2A2G2A2 | G6z4
DG | G3GB2B4d2 | d3cc2c2c2
c2 | A2A2d2d2c2c2 | c6B4
D2 | D2G2G2G2F2E2 | E6D4
c2 | B3BB2A2G2A2 | G6z4

@@@ Tune index: 4065
